X:69
T:The Big Fiddle
R:reel
C:Paul S. Cranford
O:Cape Breton Island
S:http://www.cranfordpub.com
D:currently unrecorded
Z:psc
N:
H:                                                        copyrights Cranford Publications, SOCAN
L:1/8
Q:333
M:C
K:GDor
D|GdBd AGdG|B,FDF GABA|Gdcd fdcB|AFAc dcAc|
BGAc BGDC|B,FDF GABc|dgfd cFdc|BGAF DGG||
|:A|BFdB AFcA|GABc dGdc|Bdcd AFcA|BGAF DGGA|
(3(Bcd) Bd AFcA|GABc dBfg|fdcB AFcA|BdAF DGG|]
